Com_parImpar_WEB/src/assets/image/time.svg

<svg width="141" height="141" viewBox="0 0 141 141" fill="none" xmlns="http://www.w3.org/2000/svg">
<circle cx="70.4727" cy="70.1016" r="70" fill="#FF9F0D"/>
<path d="M83.7506 88.0185L87.9506 83.8185L73.1106 68.8852V50.1252H67.5106V71.1252L83.7506 88.0185ZM70.0306 107.339C64.9284 107.339 60.1062 106.359 55.5639 104.399C51.0217 102.439 47.055 99.763 43.6639 96.3719C40.2728 92.9808 37.5973 89.0141 35.6373 84.4719C33.6773 79.9296 32.6973 75.1074 32.6973 70.0052C32.6973 64.903 33.6773 60.0808 35.6373 55.5385C37.5973 50.9963 40.2728 47.0297 43.6639 43.6385C47.055 40.2474 51.0217 37.5719 55.5639 35.6119C60.1062 33.6519 64.9284 32.6719 70.0306 32.6719C75.1328 32.6719 79.955 33.6519 84.4973 35.6119C89.0395 37.5719 93.0062 40.2474 96.3973 43.6385C99.7884 47.0297 102.464 50.9963 104.424 55.5385C106.384 60.0808 107.364 64.903 107.364 70.0052C107.364 75.1074 106.384 79.9296 104.424 84.4719C102.464 89.0141 99.7884 92.9808 96.3973 96.3719C93.0062 99.763 89.0395 102.439 84.4973 104.399C79.955 106.359 75.1328 107.339 70.0306 107.339ZM70.0306 101.739C78.7417 101.739 86.2084 98.6274 92.4306 92.4052C98.6528 86.183 101.764 78.7163 101.764 70.0052C101.764 61.2941 98.6528 53.8274 92.4306 47.6052C86.2084 41.383 78.7417 38.2719 70.0306 38.2719C61.3195 38.2719 53.8528 41.383 47.6306 47.6052C41.4084 53.8274 38.2973 61.2941 38.2973 70.0052C38.2973 78.7163 41.4084 86.183 47.6306 92.4052C53.8528 98.6274 61.3195 101.739 70.0306 101.739Z" fill="white"/>
</svg>

<?xml version="1.0" encoding="utf-8"?>
<!-- Generator: Adobe Illustrator 25.0.1, SVG Export Plug-In . SVG Version: 6.00 Build 0)  -->
<svg version="1.1" id="Capa_1" xmlns="http://www.w3.org/2000/svg" xmlns:xlink="http://www.w3.org/1999/xlink" x="0px" y="0px"
	 viewBox="0 0 141 141" style="enable-background:new 0 0 141 141;" xml:space="preserve">
<style type="text/css">
	.st0{fill:#1995AD;}
	.st1{fill:#FFFFFF;}
</style>
<circle class="st0" cx="70.5" cy="70.1" r="70"/>
<path class="st1" d="M83.8,88l4.2-4.2L73.1,68.9V50.1h-5.6v21L83.8,88z M70,107.3c-5.1,0-9.9-1-14.5-2.9c-4.5-2-8.5-4.6-11.9-8
	c-3.4-3.4-6.1-7.4-8-11.9c-2-4.5-2.9-9.4-2.9-14.5c0-5.1,1-9.9,2.9-14.5c2-4.5,4.6-8.5,8-11.9c3.4-3.4,7.4-6.1,11.9-8
	c4.5-2,9.4-2.9,14.5-2.9c5.1,0,9.9,1,14.5,2.9c4.5,2,8.5,4.6,11.9,8c3.4,3.4,6.1,7.4,8,11.9c2,4.5,2.9,9.4,2.9,14.5
	c0,5.1-1,9.9-2.9,14.5c-2,4.5-4.6,8.5-8,11.9c-3.4,3.4-7.4,6.1-11.9,8C80,106.4,75.1,107.3,70,107.3z M70,101.7
	c8.7,0,16.2-3.1,22.4-9.3c6.2-6.2,9.3-13.7,9.3-22.4s-3.1-16.2-9.3-22.4c-6.2-6.2-13.7-9.3-22.4-9.3s-16.2,3.1-22.4,9.3
	S38.3,61.3,38.3,70s3.1,16.2,9.3,22.4C53.9,98.6,61.3,101.7,70,101.7z"/>
</svg>
